X:1
T:James Gibb editions
T:Il tedesco - Gastoldi
%%score [ 1 2 3 ]
L:1/8
Q:1/4=108
M:2/2
K:F
V:1 treble-8 nm="Tenor I" snm="T I"
V:2 treble-8 nm="Tenor II" snm="T II"
V:3 bass nm="Bass" snm="B"
V:1
"^Il tedesco""^Giovanni Gastoldi\n(1560-1609)" z2 BA | G2 F2 G2 A2 | B4 z2 BB | A2 B2 c2 c2 | d4 :| %5
w: Vi- va,|vi- va Bac- co~~o-|gnor Col suo|dol- ce~~e buon li-|cor|
w: Vi- va,~|vi- va l'in- ven-|tor Di si|dol- ce~~e buon li-|cor|
[M:2/2][K:treble-8] z2 cc | c2 c2 B2 B2 | A4 z2 d^c | d2 B2 A2 A2 | G4 |: z2 Bc | d2 c2 B2 G2 | %12
w: Be- viam|tut- ti chè nel|ber Si ral-|le- gr'il cor dav-|ver:|Che tar-|dia- mo~~a be- ver|
w: Che non|be- ve~~a ga- ra~~o-|gnùn? Be- va|lie- to~~or- mai cias-|cun:|Pri- ma-|men- te~~io be- ve-|
 A4 z2 GA | B2 c2 A2 A2 | G4 :| %15
w: mó? Brin- des,|brin- des, iò iò|iò.|
w: rò Brin- des,|brin- des, iò iò|iò.|
V:2
 z2 GA | B2 A2 B2 c2 | d4 z2 dd | c2 B2 B2 A2 | B4 :|[M:2/2][K:treble-8] z2 AA | A2 A2 G2 G2 | %7
w: Vi- va,|vi- va Bac- co~~o-|gnor Col suo|dol- ce~~e buon li-|cor|Be- viam|tut- ti chè nel|
w: Vi- va,~|vi- va l'in- ven-|tor Di si|dol- ce~~e buon li-|cor|Che non|be- ve~~a ga- ra~~o-|
 ^F4 z2 =FG | A2 G2 d2 d2 | =B4 |: z2 dc | B2 c2 d2 B2 | c4 z2 BA | G2 G2 G2 ^F2 | G4 :| %15
w: ber Si ral-|le- gr'il cor dav-|ver:|Che tar-|dia- mo~~a be- ver|mó? Brin- des,|brin- des, iò iò|iò.|
w: gnùn? Be- va|lie- to~~or- mai cias-|cun:|Pri- ma-|men- te~~io be- ve-|rò Brin- des,|brin- des, iò iò|iò.|
V:3
 z2 G,^F, | G,2 D,2 G,2 F,2 | B,,4 z2 B,,B,, | F,2 G,2 _E,2 F,2 | B,,4 :|[M:2/2] z2 F,F, | %6
w: Vi- va,|vi- va Bac- co~~o-|gnor Col suo|dol- ce~~e buon li-|cor|Be- viam|
w: Vi- va,~|vi- va l'in- ven-|tor Di si|dol- ce~~e buon li-|cor|Che non|
 F,2 F,2 G,2 G,2 | D,4 z2 D,E, | ^F,2 G,2 G,2 F,2 | G,4 |: z2 G,A, | B,2 A,2 G,2 G,2 | %12
w: tut- ti chè nel|ber Si ral-|le- gr'il cor dav-|ver:|Che tar-|dia- mo~~a be- ver|
w: be- ve~~a ga- ra~~o-|gnùn? Be- va|lie- to~~or- mai cias-|cun:|Pri- ma-|men- te~~io be- ve-|
 F,4 z2 G,F, | _E,2 C,2 D,2 D,2 | G,,4 :| %15
w: mó? Brin- des,|brin- des, iò iò|iò.|
w: rò Brin- des,|brin- des, iò iò|iò.|

